docs/.gitbook/assets/icon-mug-steam-16@dark.svg

<svg width="32" height="32" viewBox="0 0 16 16" fill="none" xmlns="http://www.w3.org/2000/svg">
<rect x="0" y="0" width="16" height="16" fill="#181c1f"/>
<path fill-rule="evenodd" clip-rule="evenodd" d="M5.58565 3.78151C5.22043 3.32498 5.22043 2.67507 5.58565 2.21855C5.84441 1.8951 5.79197 1.42313 5.46852 1.16438C5.14507 0.905619 4.67311 0.95806 4.41435 1.28151C3.61087 2.28586 3.61087 3.7142 4.41435 4.71855C4.67311 5.042 5.14507 5.09444 5.46852 4.83568C5.79197 4.57692 5.84441 4.10495 5.58565 3.78151ZM1.75 6.00003C1.33579 6.00003 1 6.33581 1 6.75003V9.50003C1 12.5376 3.46243 15 6.5 15C9.01755 15 11.14 13.3085 11.793 11H12.5C13.8807 11 15 9.88074 15 8.50003C15 7.11932 13.8807 6.00003 12.5 6.00003H11.25H1.75ZM12 7.50003V9.50003H12.5C13.0523 9.50003 13.5 9.05231 13.5 8.50003C13.5 7.94774 13.0523 7.50003 12.5 7.50003H12ZM10.5 7.50003H2.5V9.50003C2.5 11.7092 4.29086 13.5 6.5 13.5C8.70914 13.5 10.5 11.7092 10.5 9.50003V7.50003ZM8.58565 2.21855C8.22043 2.67507 8.22043 3.32498 8.58565 3.78151C8.84441 4.10495 8.79197 4.57692 8.46852 4.83568C8.14507 5.09444 7.67311 5.042 7.41435 4.71855C6.61087 3.7142 6.61087 2.28586 7.41435 1.28151C7.67311 0.95806 8.14507 0.905619 8.46852 1.16438C8.79197 1.42313 8.84441 1.8951 8.58565 2.21855Z" fill="#fff"/>
</svg>

<svg xmlns="http://www.w3.org/2000/svg" width="32" height="32" fill="none" viewBox="0 0 16 16"><path fill="#181c1f" d="M0 0h16v16H0z"/><path fill="#fff" fill-rule="evenodd" d="M5.586 3.782a1.25 1.25 0 0 1 0-1.563.75.75 0 1 0-1.172-.937 2.75 2.75 0 0 0 0 3.437.75.75 0 1 0 1.172-.937M1.75 6a.75.75 0 0 0-.75.75V9.5A5.5 5.5 0 0 0 11.793 11h.707a2.5 2.5 0 1 0 0-5zM12 7.5v2h.5a1 1 0 1 0 0-2zm-1.5 0h-8v2a4 4 0 1 0 8 0zM8.586 2.219a1.25 1.25 0 0 0 0 1.563.75.75 0 1 1-1.172.937 2.75 2.75 0 0 1 0-3.437.75.75 0 1 1 1.172.937" clip-rule="evenodd"/></svg>
